svgs/sharp-light/plug-circle-bolt.svg

<svg xmlns="http://www.w3.org/2000/svg" viewBox="0 0 576 512"><!--! Font Awesome Pro 6.6.0 by @fontawesome - https://fontawesome.com License - https://fontawesome.com/license (Commercial License) Copyright 2024 Fonticons, Inc. --><path d="M128 16l0-16L96 0l0 16 0 96 32 0 0-96zm160 0l0-16L256 0l0 16 0 96 32 0 0-96zM16 144L0 144l0 32 16 0 16 0 0 64c0 83 63.1 151.2 144 159.2l0 96.8 0 16 32 0 0-16 0-96.8c17.3-1.7 33.7-6.2 48.9-12.9c-.6-6-.9-12.1-.9-18.3c0-6 .3-11.8 .9-17.6c-19 11.2-41.2 17.6-64.9 17.6c-70.7 0-128-57.3-128-128l0-64 256 0 0 56.2c9.8-8.1 20.6-15.2 32-21l0-35.2 16 0 16 0 0-32-16 0-16 0-32 0L64 144l-32 0-16 0zM320 368a112 112 0 1 1 224 0 112 112 0 1 1 -224 0zm256 0a144 144 0 1 0 -288 0 144 144 0 1 0 288 0zM456 288L352 384l66.7 0L408 448l104-96-66.7 0L456 288z"/></svg>

<svg xmlns="http://www.w3.org/2000/svg" viewBox="0 0 576 512"><!--! Font Awesome Pro 6.4.0 by @fontawesome - https://fontawesome.com License - https://fontawesome.com/license (Commercial License) Copyright 2023 Fonticons, Inc. --><path d="M128 16V0H96V16v96h32V16zm160 0V0H256V16v96h32V16zM16 144H0v32H16 32v64c0 83 63.1 151.2 144 159.2V496v16h32V496 399.2c17.3-1.7 33.7-6.2 48.9-12.9c-.6-6-.9-12.1-.9-18.3c0-6 .3-11.8 .9-17.6c-19 11.2-41.2 17.6-64.9 17.6c-70.7 0-128-57.3-128-128V176H320v56.2c9.8-8.1 20.6-15.2 32-21V176h16 16V144H368 352 320 64 32 16zM320 368a112 112 0 1 1 224 0 112 112 0 1 1 -224 0zm256 0a144 144 0 1 0 -288 0 144 144 0 1 0 288 0zM456 288L352 384h66.7L408 448l104-96H445.3L456 288z"/></svg>
